X: 42334
T: Wee Rabbit, The
R: hornpipe
M: 4/4
K: Cmajor
GF|:"C" E2 CCDC|"F"D2 E FED|"C" E2 cc2B|c2 BA2 G|
"A" E2 A A2 G|"F" A2 c B2 A|"G" B2 G G2 [1^F|G3] G2 F|% play ^f g3 the second time
"C" EFG F2 E|"F" DEF E2 D|"C" C2 E G2 "F" A-|A2 G F2 E ?|
"G" G2 A B2 c|d2 BA2 G|"C"G2 c "F" c2 B|1 "C" c3 G2 F:|
|:c3 c2 d|"C"e2 ccdc|e2 g c'2 b|"A"a5 g|a2 g f2 e|
"F"f3 f2 e|f2 e d2 c|"G"B2 G G2 ^f|g3 G2 F "C" EFG F2 E|"F" DEF E2 D|
"C" C2 E G2 "F" A-|A2 G F2 E ?|"G" G2 A B2 c|d2 BA2 G|
"C"G2 c "F" c2 B|"C" c6:|

